src/assets/social/linkedin.svg

<svg height="20" viewBox="0 0 21 20" width="21" xmlns="http://www.w3.org/2000/svg"><g fill="#fff" fill-rule="evenodd" transform="translate(.791141)"><path d="m2.33355728 0c-1.28950315 0-2.33355728 1.04395393-2.33355728 2.33333333s1.04405413 2.33333334 2.33355728 2.33333334 2.33310939-1.04395394 2.33310939-2.33333334-1.04360624-2.33333333-2.33310939-2.33333333z"/><path d="m19.8899873 10.7636559c-.3067834-2.52717757-1.4587864-4.09698923-4.8678388-4.09698923-1.9990115 0-3.3477852.73591911-3.9117121 1.80333736h-.0612673v-1.80333736h-3.71583577v13.33333333h3.88756297v-6.6111931c0-1.7424954.3430071-3.42235944 2.477522-3.42235944 2.1448006 0 2.304006 1.98675794 2.304006 3.54449064v6.4890619h3.9975757v-7.3229544c0-.6871561-.0371181-1.3246544-.1100127-1.9133897z"/><path d="m0 10.2116047v9.7883953h4.66666667v-13.33333333h-4.66666667z"/></g></svg>

<?xml version="1.0" encoding="UTF-8"?>
<svg width="21px" height="20px" viewBox="0 0 21 20" version="1.1" xmlns="http://www.w3.org/2000/svg" xmlns:xlink="http://www.w3.org/1999/xlink">
    <!-- Generator: Sketch 53.2 (72643) - https://sketchapp.com -->
    <title>Linkedin</title>
    <g id="Symbols" stroke="none" stroke-width="1" fill="none" fill-rule="evenodd">
        <g id="Footer" transform="translate(-568.000000, -104.000000)" fill="#FFFFFF">
            <g id="Group-3" transform="translate(437.000000, 50.000000)">
                <g id="Group-5" transform="translate(131.791141, 54.000000)">
                    <path d="M2.33355728,-4.4408921e-15 C1.04405413,-4.4408921e-15 3.8191672e-14,1.04395393 3.8191672e-14,2.33333333 C3.8191672e-14,3.62271273 1.04405413,4.66666667 2.33355728,4.66666667 C3.62306043,4.66666667 4.66666667,3.62271273 4.66666667,2.33333333 C4.66666667,1.04395393 3.62306043,-4.4408921e-15 2.33355728,-4.4408921e-15 Z" id="Path"></path>
                    <path d="M19.8899873,10.7636559 C19.5832039,8.23647833 18.4312009,6.66666667 15.0221485,6.66666667 C13.023137,6.66666667 11.6743633,7.40258578 11.1104364,8.47000403 L11.0491691,8.47000403 L11.0491691,6.66666667 L7.33333333,6.66666667 L7.33333333,20 L11.2208963,20 L11.2208963,13.3888069 C11.2208963,11.6463115 11.5639034,9.96644746 13.6984183,9.96644746 C15.8432189,9.96644746 16.0024243,11.9532054 16.0024243,13.5109381 L16.0024243,20 L20,20 L20,12.6770456 C20,11.9898895 19.9628819,11.3523912 19.8899873,10.7636559 Z" id="Path"></path>
                    <polygon id="Path" points="3.8191672e-14 10.2116047 3.8191672e-14 20 4.66666667 20 4.66666667 6.66666667 3.8191672e-14 6.66666667"></polygon>
                </g>
            </g>
        </g>
    </g>
</svg>
